; generated by PrusaSlicer 2.9.2 on 2025-09-08 at 07:59:24 UTC


;
;

;
;

;
;

;
;
;

; external perimeters extrusion width = 0.45mm
; perimeters extrusion width = 0.45mm
; infill extrusion width = 0.45mm
; solid infill extrusion width = 0.45mm
; top infill extrusion width = 0.42mm
; first layer extrusion width = 0.50mm

M73 P0 R61
M73 Q0 S64
M201 X4000 Y4000 Z400 E5000 ; sets maximum accelerations, mm/sec^2
M203 X400 Y400 Z12 E80 ; sets maximum feedrates, mm / sec
M204 P4000 R1250 T4000 ; sets acceleration (P, T) and retract acceleration (R), mm/sec^2
M205 X8.00 Y8.00 Z2.00 E10.00 ; sets the jerk limits, mm/sec
M205 S0 T0 ; sets the minimum extruding and travel feed rate, mm/sec

M486 S0
M486 Abottom.stl
M486 S-1

;TYPE:Custom
M862.3 P "MINI" ; printer model check
M862.1 P0.4 ; nozzle diameter check
M862.5 P2 ; g-code level check
M862.6 P"Input shaper" ; FW feature check
M115 U6.0.1+14848
G90 ; use absolute coordinates
M83 ; extruder relative mode
M104 S170 ; set extruder temp for bed leveling
M140 S60 ; set bed temp
M109 R170 ; wait for bed leveling temp
M190 S60 ; wait for bed temp
M569 S1 X Y ; set stealthchop for X Y
M204 T1250 ; set travel acceleration
G28 ; home all without mesh bed level
G29 ; mesh bed leveling
M104 S220 ; set extruder temp
G92 E0

G1 X0 Y-2 Z3 F2400

M109 S220 ; wait for extruder temp

; intro line
G1 X10 Z0.2 F1000
G1 X70 E8 F900
G1 X140 E10 F700
G92 E0

M569 S0 X Y ; set spreadcycle for X Y
M204 T4000 ; restore travel acceleration
M572 W0.06 ; set smooth time
M221 S95 ; set flow
G21 ; set units to millimeters
G90 ; use absolute coordinates
M83 ; use relative distances for extrusion



M572 S0.27


M107
;LAYER_CHANGE
;Z:0.2
;HEIGHT:0.2
G1 E-2.5 F4200
G1 Z.4 F720
M486 S0
G1 X169.068 Y65.932 F24000
G1 Z.2 F720
G1 E2.5 F2400
M204 P500
;TYPE:Perimeter
;WIDTH:0.499999
G1 F1800
G1 X169.068 Y90 E.91473
G1 X169.068 Y114.068 E.91473
G1 X10.932 Y114.068 E6.01016
G1 X10.932 Y65.932 E1.82947
G1 X169.008 Y65.932 E6.00788
M204 P2000
M204 T4000
G1 X169.525 Y65.475 F24000
M204 P500
;TYPE:External perimeter
G1 F1800
G1 X169.525 Y90 E.9321
G1 X169.525 Y114.525 E.9321
G1 X10.475 Y114.525 E6.0449
G1 X10.475 Y65.475 E1.86421
M73 P0 R60
G1 X169.465 Y65.475 E6.04262
M204 P2000
G1 X169.524 Y65.871 F24000
M73 P1 R60
M73 Q1 S64
G1 E-2.5 F4200
G1 Z.4 F720
G1 X167.961 Y66.115 F24000
G1 Z.2 F720
G1 E2.5 F2400
M204 P500
;TYPE:Solid infill
;WIDTH:0.500164
G1 F2700
G1 X168.679 Y66.834 E.03863
G1 X168.679 Y67.48 E.02456
G1 X167.52 Y66.321 E.06232
G1 X166.873 Y66.321 E.0246
G1 X168.679 Y68.127 E.09711
G1 X168.679 Y68.773 E.02456
G1 X166.227 Y66.321 E.13184
G1 X165.58 Y66.321 E.0246
G1 X168.679 Y69.42 E.16663
G1 X168.679 Y70.067 E.0246
G1 X164.933 Y66.321 E.20142
G1 X164.287 Y66.321 E.02456
G1 X168.679 Y70.713 E.23615
G1 X168.679 Y71.36 E.0246
G1 X163.64 Y66.321 E.27094
G1 X162.993 Y66.321 E.0246
G1 X168.679 Y72.007 E.30573
G1 X168.679 Y72.653 E.02456
G1 X162.347 Y66.321 E.34046
G1 X161.7 Y66.321 E.0246
G1 X168.679 Y73.3 E.37525
G1 X168.679 Y73.947 E.0246
G1 X161.053 Y66.321 E.41004
G1 X160.407 Y66.321 E.02456
G1 X168.679 Y74.593 E.44477
G1 X168.679 Y75.24 E.0246
G1 X159.76 Y66.321 E.47956
G1 X159.113 Y66.321 E.0246
G1 X168.679 Y75.887 E.51435
G1 X168.679 Y76.533 E.02456
G1 X158.467 Y66.321 E.54908
G1 X157.82 Y66.321 E.0246
G1 X168.679 Y77.18 E.58387
G1 X168.679 Y77.826 E.02456
G1 X157.174 Y66.321 E.61861
G1 X156.527 Y66.321 E.0246
G1 X168.679 Y78.473 E.65339
G1 X168.679 Y79.12 E.0246
G1 X155.88 Y66.321 E.68818
G1 X155.234 Y66.321 E.02456
G1 X168.679 Y79.766 E.72292
G1 X168.679 Y80.413 E.0246
G1 X154.587 Y66.321 E.7577
G1 X153.94 Y66.321 E.0246
G1 X168.679 Y81.06 E.79249
G1 X168.679 Y81.706 E.02456
G1 X153.294 Y66.321 E.82723
G1 X152.647 Y66.321 E.0246
G1 X168.679 Y82.353 E.86201
G1 X168.679 Y83 E.0246
G1 X152 Y66.321 E.8968
G1 X151.354 Y66.321 E.02456
G1 X168.679 Y83.646 E.93154
G1 X168.679 Y84.293 E.0246
G1 X150.707 Y66.321 E.96633
G1 X150.061 Y66.321 E.02456
G1 X168.679 Y84.939 E1.00106
G1 X168.679 Y85.586 E.0246
G1 X149.414 Y66.321 E1.03585
G1 X148.767 Y66.321 E.0246
G1 X168.679 Y86.233 E1.07064
G1 X168.679 Y86.879 E.02456
G1 X148.121 Y66.321 E1.10537
G1 X147.474 Y66.321 E.0246
G1 X168.679 Y87.526 E1.14016
G1 X168.679 Y88.173 E.0246
G1 X146.827 Y66.321 E1.17495
G1 X146.181 Y66.321 E.02456
G1 X168.679 Y88.819 E1.20968
G1 X168.679 Y89.466 E.0246
G1 X145.534 Y66.321 E1.24447
G1 X144.887 Y66.321 E.0246
G1 X168.679 Y90.113 E1.27926
G1 X168.679 Y90.759 E.02456
G1 X144.241 Y66.321 E1.31399
M73 Q1 S63
G1 X143.594 Y66.321 E.0246
G1 X168.679 Y91.406 E1.34878
G1 X168.679 Y92.053 E.0246
G1 X142.947 Y66.321 E1.38357
G1 X142.301 Y66.321 E.02456
G1 X168.679 Y92.699 E1.4183
G1 X168.679 Y93.346 E.0246
G1 X141.654 Y66.321 E1.45309
G1 X141.008 Y66.321 E.02456
G1 X168.679 Y93.992 E1.48783
G1 X168.679 Y94.639 E.0246
G1 X140.361 Y66.321 E1.52261
G1 X139.714 Y66.321 E.0246
G1 X168.679 Y95.286 E1.5574
G1 X168.679 Y95.932 E.02456
G1 X139.068 Y66.321 E1.59214
G1 X138.421 Y66.321 E.0246
G1 X168.679 Y96.579 E1.62692
G1 X168.679 Y97.226 E.0246
G1 X137.774 Y66.321 E1.66171
G1 X137.128 Y66.321 E.02456
G1 X168.679 Y97.872 E1.69645
G1 X168.679 Y98.519 E.0246
G1 X136.481 Y66.321 E1.73123
G1 X135.834 Y66.321 E.0246
G1 X168.679 Y99.166 E1.76602
G1 X168.679 Y99.812 E.02456
G1 X135.188 Y66.321 E1.80076
G1 X134.541 Y66.321 E.0246
G1 X168.679 Y100.459 E1.83555
G1 X168.679 Y101.106 E.0246
G1 X133.894 Y66.321 E1.87033
G1 X133.248 Y66.321 E.02456
M73 P2 R60
G1 X168.679 Y101.752 E1.90507
G1 X168.679 Y102.399 E.0246
G1 X132.601 Y66.321 E1.93986
G1 X131.955 Y66.321 E.02456
G1 X168.679 Y103.045 E1.97459
G1 X168.679 Y103.692 E.0246
M73 Q2 S63
G1 X131.308 Y66.321 E2.00938
G1 X130.661 Y66.321 E.0246
G1 X168.679 Y104.339 E2.04417
G1 X168.679 Y104.985 E.02456
G1 X130.015 Y66.321 E2.0789
G1 X129.368 Y66.321 E.0246
G1 X168.679 Y105.632 E2.11369
G1 X168.679 Y106.279 E.0246
G1 X128.721 Y66.321 E2.14848
G1 X128.075 Y66.321 E.02456
G1 X168.679 Y106.925 E2.18321
G1 X168.679 Y107.572 E.0246
G1 X127.428 Y66.321 E2.218
G1 X126.781 Y66.321 E.0246
G1 X168.679 Y108.219 E2.25279
G1 X168.679 Y108.865 E.02456
G1 X126.135 Y66.321 E2.28752
G1 X125.488 Y66.321 E.0246
G1 X168.679 Y109.512 E2.32231
G1 X168.679 Y110.158 E.02456
M73 P2 R59
G1 X124.842 Y66.321 E2.35705
G1 X124.195 Y66.321 E.0246
G1 X168.679 Y110.805 E2.39183
G1 X168.679 Y111.452 E.0246
G1 X123.548 Y66.321 E2.42662
G1 X122.902 Y66.321 E.02456
G1 X168.679 Y112.098 E2.46136
G1 X168.679 Y112.745 E.0246
G1 X122.255 Y66.321 E2.49614
G1 X121.608 Y66.321 E.0246
G1 X168.679 Y113.392 E2.53093
G1 X168.679 Y113.679 E.01091
G1 X168.32 Y113.679 E.01365
G1 X120.962 Y66.321 E2.54636
G1 X120.315 Y66.321 E.0246
G1 X167.674 Y113.679 E2.54639
G1 X167.027 Y113.679 E.0246
G1 X119.668 Y66.321 E2.54639
G1 X119.022 Y66.321 E.02456
G1 X166.381 Y113.679 E2.54639
G1 X165.734 Y113.679 E.0246
G1 X118.375 Y66.321 E2.54639
G1 X117.728 Y66.321 E.0246
G1 X165.087 Y113.679 E2.54639
G1 X164.441 Y113.679 E.02456
M73 P3 R59
G1 X117.082 Y66.321 E2.54639
G1 X116.435 Y66.321 E.0246
G1 X163.794 Y113.679 E2.54639
G1 X163.147 Y113.679 E.0246
G1 X115.789 Y66.321 E2.54636
G1 X115.142 Y66.321 E.0246
G1 X162.501 Y113.679 E2.54639
G1 X161.854 Y113.679 E.0246
M73 Q3 S63
G1 X114.495 Y66.321 E2.54639
G1 X113.849 Y66.321 E.02456
M73 Q3 S62
G1 X161.207 Y113.679 E2.54636
G1 X160.561 Y113.679 E.02456
G1 X113.202 Y66.321 E2.54639
G1 X112.555 Y66.321 E.0246
G1 X159.914 Y113.679 E2.54639
G1 X159.268 Y113.679 E.02456
G1 X111.909 Y66.321 E2.54639
G1 X111.262 Y66.321 E.0246
G1 X158.621 Y113.679 E2.54639
G1 X157.974 Y113.679 E.0246
G1 X110.615 Y66.321 E2.54639
G1 X109.969 Y66.321 E.02456
G1 X157.328 Y113.679 E2.54639
G1 X156.681 Y113.679 E.0246
G1 X109.322 Y66.321 E2.54639
G1 X108.676 Y66.321 E.02456
G1 X156.034 Y113.679 E2.54636
G1 X155.388 Y113.679 E.02456
G1 X108.029 Y66.321 E2.54639
G1 X107.382 Y66.321 E.0246
G1 X154.741 Y113.679 E2.54639
G1 X154.094 Y113.679 E.0246
G1 X106.736 Y66.321 E2.54636
G1 X106.089 Y66.321 E.0246
G1 X153.448 Y113.679 E2.54639
G1 X152.801 Y113.679 E.0246
G1 X105.442 Y66.321 E2.54639
G1 X104.796 Y66.321 E.02456
G1 X152.154 Y113.679 E2.54636
G1 X151.508 Y113.679 E.02456
G1 X104.149 Y66.321 E2.54639
G1 X103.502 Y66.321 E.0246
G1 X150.861 Y113.679 E2.54639
G1 X150.215 Y113.679 E.02456
G1 X102.856 Y66.321 E2.54639
G1 X102.209 Y66.321 E.0246
G1 X149.568 Y113.679 E2.54639
G1 X148.921 Y113.679 E.0246
M73 P4 R59
G1 X101.562 Y66.321 E2.54639
G1 X100.916 Y66.321 E.02456
G1 X148.275 Y113.679 E2.54639
G1 X147.628 Y113.679 E.0246
M73 P4 R58
G1 X100.269 Y66.321 E2.54639
G1 X99.623 Y66.321 E.02456
G1 X146.981 Y113.679 E2.54636
G1 X146.335 Y113.679 E.02456
G1 X98.976 Y66.321 E2.54639
G1 X98.329 Y66.321 E.0246
M73 Q4 S62
G1 X145.688 Y113.679 E2.54639
G1 X145.041 Y113.679 E.0246
G1 X97.683 Y66.321 E2.54636
G1 X97.036 Y66.321 E.0246
G1 X144.395 Y113.679 E2.54639
G1 X143.748 Y113.679 E.0246
G1 X96.389 Y66.321 E2.54639
G1 X95.743 Y66.321 E.02456
G1 X143.102 Y113.679 E2.54639
G1 X142.455 Y113.679 E.0246
G1 X95.096 Y66.321 E2.54639
G1 X94.449 Y66.321 E.0246
G1 X141.808 Y113.679 E2.54639
G1 X141.162 Y113.679 E.02456
G1 X93.803 Y66.321 E2.54639
G1 X93.156 Y66.321 E.0246
G1 X140.515 Y113.679 E2.54639
G1 X139.868 Y113.679 E.0246
G1 X92.509 Y66.321 E2.54639
G1 X91.863 Y66.321 E.02456
G1 X139.222 Y113.679 E2.54639
G1 X138.575 Y113.679 E.0246
G1 X91.216 Y66.321 E2.54639
G1 X90.57 Y66.321 E.02456
G1 X137.928 Y113.679 E2.54636
G1 X137.282 Y113.679 E.02456
M73 Q4 S61
G1 X89.923 Y66.321 E2.54639
G1 X89.276 Y66.321 E.0246
G1 X136.635 Y113.679 E2.54639
G1 X135.988 Y113.679 E.0246
G1 X88.63 Y66.321 E2.54636
G1 X87.983 Y66.321 E.0246
G1 X135.342 Y113.679 E2.54639
G1 X134.695 Y113.679 E.0246
G1 X87.336 Y66.321 E2.54639
G1 X86.69 Y66.321 E.02456
M73 P5 R58
G1 X134.049 Y113.679 E2.54639
G1 X133.402 Y113.679 E.0246
G1 X86.043 Y66.321 E2.54639
G1 X85.396 Y66.321 E.0246
G1 X132.755 Y113.679 E2.54639
G1 X132.109 Y113.679 E.02456
G1 X84.75 Y66.321 E2.54639
G1 X84.103 Y66.321 E.0246
G1 X131.462 Y113.679 E2.54639
G1 X130.815 Y113.679 E.0246
G1 X83.457 Y66.321 E2.54636
G1 X82.81 Y66.321 E.0246
M73 Q5 S61
G1 X130.169 Y113.679 E2.54639
G1 X129.522 Y113.679 E.0246
G1 X82.163 Y66.321 E2.54639
G1 X81.517 Y66.321 E.02456
G1 X128.875 Y113.679 E2.54636
G1 X128.229 Y113.679 E.02456
G1 X80.87 Y66.321 E2.54639
G1 X80.223 Y66.321 E.0246
G1 X127.582 Y113.679 E2.54639
G1 X126.935 Y113.679 E.0246
G1 X79.577 Y66.321 E2.54636
G1 X78.93 Y66.321 E.0246
G1 X126.289 Y113.679 E2.54639
G1 X125.642 Y113.679 E.0246
G1 X78.283 Y66.321 E2.54639
G1 X77.637 Y66.321 E.02456
G1 X124.996 Y113.679 E2.54639
G1 X124.349 Y113.679 E.0246
G1 X76.99 Y66.321 E2.54639
G1 X76.343 Y66.321 E.0246
G1 X123.702 Y113.679 E2.54639
G1 X123.056 Y113.679 E.02456
M73 P5 R57
G1 X75.697 Y66.321 E2.54639
G1 X75.05 Y66.321 E.0246
G1 X122.409 Y113.679 E2.54639
G1 X121.762 Y113.679 E.0246
G1 X74.404 Y66.321 E2.54636
G1 X73.757 Y66.321 E.0246
G1 X121.116 Y113.679 E2.54639
G1 X120.469 Y113.679 E.0246
G1 X73.11 Y66.321 E2.54639
G1 X72.464 Y66.321 E.02456
G1 X119.822 Y113.679 E2.54636
G1 X119.176 Y113.679 E.02456
M73 P6 R57
G1 X71.817 Y66.321 E2.54639
G1 X71.17 Y66.321 E.0246
G1 X118.529 Y113.679 E2.54639
G1 X117.883 Y113.679 E.02456
G1 X70.524 Y66.321 E2.54639
G1 X69.877 Y66.321 E.0246
G1 X117.236 Y113.679 E2.54639
G1 X116.589 Y113.679 E.0246
G1 X69.23 Y66.321 E2.54639
G1 X68.584 Y66.321 E.02456
G1 X115.943 Y113.679 E2.54639
G1 X115.296 Y113.679 E.0246
G1 X67.937 Y66.321 E2.54639
G1 X67.291 Y66.321 E.02456
G1 X114.649 Y113.679 E2.54636
G1 X114.003 Y113.679 E.02456
M73 Q6 S61
G1 X66.644 Y66.321 E2.54639
G1 X65.997 Y66.321 E.0246
G1 X113.356 Y113.679 E2.54639
G1 X112.709 Y113.679 E.0246
M73 Q6 S60
G1 X65.351 Y66.321 E2.54636
G1 X64.704 Y66.321 E.0246
G1 X112.063 Y113.679 E2.54639
G1 X111.416 Y113.679 E.0246
G1 X64.057 Y66.321 E2.54639
G1 X63.411 Y66.321 E.02456
G1 X110.769 Y113.679 E2.54636
G1 X110.123 Y113.679 E.02456
G1 X62.764 Y66.321 E2.54639
G1 X62.117 Y66.321 E.0246
G1 X109.476 Y113.679 E2.54639
G1 X108.83 Y113.679 E.02456
G1 X61.471 Y66.321 E2.54639
G1 X60.824 Y66.321 E.0246
G1 X108.183 Y113.679 E2.54639
G1 X107.536 Y113.679 E.0246
G1 X60.177 Y66.321 E2.54639
G1 X59.531 Y66.321 E.02456
G1 X106.89 Y113.679 E2.54639
G1 X106.243 Y113.679 E.0246
G1 X58.884 Y66.321 E2.54639
G1 X58.238 Y66.321 E.02456
G1 X105.596 Y113.679 E2.54636
G1 X104.95 Y113.679 E.02456
G1 X57.591 Y66.321 E2.54639
G1 X56.944 Y66.321 E.0246
M73 P7 R57
G1 X104.303 Y113.679 E2.54639
G1 X103.656 Y113.679 E.0246
G1 X56.298 Y66.321 E2.54636
G1 X55.651 Y66.321 E.0246
G1 X103.01 Y113.679 E2.54639
G1 X102.363 Y113.679 E.0246
G1 X55.004 Y66.321 E2.54639
G1 X54.358 Y66.321 E.02456
G1 X101.717 Y113.679 E2.54639
G1 X101.07 Y113.679 E.0246
G1 X53.711 Y66.321 E2.54639
G1 X53.064 Y66.321 E.0246
G1 X100.423 Y113.679 E2.54639
G1 X99.777 Y113.679 E.02456
G1 X52.418 Y66.321 E2.54639
G1 X51.771 Y66.321 E.0246
G1 X99.13 Y113.679 E2.54639
G1 X98.483 Y113.679 E.0246
M73 P7 R56
M73 Q7 S60
G1 X51.124 Y66.321 E2.54639
G1 X50.478 Y66.321 E.02456
G1 X97.837 Y113.679 E2.54639
G1 X97.19 Y113.679 E.0246
G1 X49.831 Y66.321 E2.54639
G1 X49.185 Y66.321 E.02456
G1 X96.543 Y113.679 E2.54636
G1 X95.897 Y113.679 E.02456
G1 X48.538 Y66.321 E2.54639
G1 X47.891 Y66.321 E.0246
G1 X95.25 Y113.679 E2.54639
G1 X94.603 Y113.679 E.0246
G1 X47.245 Y66.321 E2.54636
G1 X46.598 Y66.321 E.0246
G1 X93.957 Y113.679 E2.54639
G1 X93.31 Y113.679 E.0246
G1 X45.951 Y66.321 E2.54639
G1 X45.305 Y66.321 E.02456
G1 X92.664 Y113.679 E2.54639
G1 X92.017 Y113.679 E.0246
G1 X44.658 Y66.321 E2.54639
G1 X44.011 Y66.321 E.0246
G1 X91.37 Y113.679 E2.54639
G1 X90.724 Y113.679 E.02456
G1 X43.365 Y66.321 E2.54639
G1 X42.718 Y66.321 E.0246
G1 X90.077 Y113.679 E2.54639
G1 X89.43 Y113.679 E.0246
G1 X42.072 Y66.321 E2.54636
G1 X41.425 Y66.321 E.0246
M73 P8 R56
G1 X88.784 Y113.679 E2.54639
G1 X88.137 Y113.679 E.0246
M73 Q7 S59
G1 X40.778 Y66.321 E2.54639
G1 X40.132 Y66.321 E.02456
G1 X87.49 Y113.679 E2.54636
G1 X86.844 Y113.679 E.02456
G1 X39.485 Y66.321 E2.54639
G1 X38.838 Y66.321 E.0246
G1 X86.197 Y113.679 E2.54639
G1 X85.55 Y113.679 E.0246
G1 X38.192 Y66.321 E2.54636
G1 X37.545 Y66.321 E.0246
G1 X84.904 Y113.679 E2.54639
G1 X84.257 Y113.679 E.0246
G1 X36.898 Y66.321 E2.54639
G1 X36.252 Y66.321 E.02456
G1 X83.611 Y113.679 E2.54639
G1 X82.964 Y113.679 E.0246
G1 X35.605 Y66.321 E2.54639
G1 X34.958 Y66.321 E.0246
M73 Q8 S59
G1 X82.317 Y113.679 E2.54639
G1 X81.671 Y113.679 E.02456
G1 X34.312 Y66.321 E2.54639
G1 X33.665 Y66.321 E.0246
G1 X81.024 Y113.679 E2.54639
G1 X80.377 Y113.679 E.0246
G1 X33.019 Y66.321 E2.54636
G1 X32.372 Y66.321 E.0246
G1 X79.731 Y113.679 E2.54639
G1 X79.084 Y113.679 E.0246
G1 X31.725 Y66.321 E2.54639
G1 X31.079 Y66.321 E.02456
G1 X78.437 Y113.679 E2.54636
G1 X77.791 Y113.679 E.02456
G1 X30.432 Y66.321 E2.54639
G1 X29.785 Y66.321 E.0246
G1 X77.144 Y113.679 E2.54639
G1 X76.498 Y113.679 E.02456
G1 X29.139 Y66.321 E2.54639
G1 X28.492 Y66.321 E.0246
G1 X75.851 Y113.679 E2.54639
G1 X75.204 Y113.679 E.0246
G1 X27.845 Y66.321 E2.54639
G1 X27.199 Y66.321 E.02456
G1 X74.558 Y113.679 E2.54639
G1 X73.911 Y113.679 E.0246
M73 P9 R55
G1 X26.552 Y66.321 E2.54639
G1 X25.906 Y66.321 E.02456
G1 X73.264 Y113.679 E2.54636
G1 X72.618 Y113.679 E.02456
G1 X25.259 Y66.321 E2.54639
G1 X24.612 Y66.321 E.0246
G1 X71.971 Y113.679 E2.54639
G1 X71.324 Y113.679 E.0246
G1 X23.966 Y66.321 E2.54636
G1 X23.319 Y66.321 E.0246
G1 X70.678 Y113.679 E2.54639
G1 X70.031 Y113.679 E.0246
G1 X22.672 Y66.321 E2.54639
G1 X22.026 Y66.321 E.02456
G1 X69.384 Y113.679 E2.54636
G1 X68.738 Y113.679 E.02456
G1 X21.379 Y66.321 E2.54639
G1 X20.732 Y66.321 E.0246
G1 X68.091 Y113.679 E2.54639
G1 X67.445 Y113.679 E.02456
G1 X20.086 Y66.321 E2.54639
G1 X19.439 Y66.321 E.0246
G1 X66.798 Y113.679 E2.54639
M73 Q9 S59
G1 X66.151 Y113.679 E.0246
G1 X18.792 Y66.321 E2.54639
G1 X18.146 Y66.321 E.02456
G1 X65.505 Y113.679 E2.54639
G1 X64.858 Y113.679 E.0246
G1 X17.499 Y66.321 E2.54639
G1 X16.853 Y66.321 E.02456
G1 X64.211 Y113.679 E2.54636
G1 X63.565 Y113.679 E.02456
M73 Q9 S58
G1 X16.206 Y66.321 E2.54639
G1 X15.559 Y66.321 E.0246
G1 X62.918 Y113.679 E2.54639
G1 X62.271 Y113.679 E.0246
