; generated by PrusaSlicer 2.9.2 on 2025-09-10 at 09:39:28 UTC


;
;

;
;

;
;

;
;
;

; external perimeters extrusion width = 0.45mm
; perimeters extrusion width = 0.45mm
; infill extrusion width = 0.45mm
; solid infill extrusion width = 0.45mm
; top infill extrusion width = 0.42mm
; first layer extrusion width = 0.50mm

; external perimeters extrusion width = 0.45mm
; perimeters extrusion width = 0.45mm
; infill extrusion width = 0.45mm
; solid infill extrusion width = 0.45mm
; top infill extrusion width = 0.42mm
; first layer extrusion width = 0.50mm

; external perimeters extrusion width = 0.45mm
; perimeters extrusion width = 0.45mm
; infill extrusion width = 0.45mm
; solid infill extrusion width = 0.45mm
; top infill extrusion width = 0.42mm
; first layer extrusion width = 0.50mm

; external perimeters extrusion width = 0.45mm
; perimeters extrusion width = 0.45mm
; infill extrusion width = 0.45mm
; solid infill extrusion width = 0.45mm
; top infill extrusion width = 0.42mm
; first layer extrusion width = 0.50mm

M73 P0 R6
M73 Q0 S6
M201 X4000 Y4000 Z400 E5000 ; sets maximum accelerations, mm/sec^2
M203 X400 Y400 Z12 E80 ; sets maximum feedrates, mm / sec
M204 P4000 R1250 T4000 ; sets acceleration (P, T) and retract acceleration (R), mm/sec^2
M205 X8.00 Y8.00 Z2.00 E10.00 ; sets the jerk limits, mm/sec
M205 S0 T0 ; sets the minimum extruding and travel feed rate, mm/sec

M486 S0
M486 ABushel.stl
M486 S-1
M486 S1
M486 AShortBushel.stl
M486 S-1
M486 S2
M486 AShortBushel.stl
M486 S-1
M486 S3
M486 ABushel.stl
M486 S-1

;TYPE:Custom
M862.3 P "MINI" ; printer model check
M862.1 P0.4 ; nozzle diameter check
M862.5 P2 ; g-code level check
M862.6 P"Input shaper" ; FW feature check
M115 U6.0.1+14848
G90 ; use absolute coordinates
M83 ; extruder relative mode
M104 S170 ; set extruder temp for bed leveling
M140 S60 ; set bed temp
M109 R170 ; wait for bed leveling temp
M190 S60 ; wait for bed temp
M569 S1 X Y ; set stealthchop for X Y
M204 T1250 ; set travel acceleration
G28 ; home all without mesh bed level
G29 ; mesh bed leveling
M104 S220 ; set extruder temp
G92 E0

G1 X0 Y-2 Z3 F2400

M109 S220 ; wait for extruder temp

; intro line
G1 X10 Z0.2 F1000
G1 X70 E8 F900
G1 X140 E10 F700
M73 P1 R6
M73 Q1 S6
G92 E0

M569 S0 X Y ; set spreadcycle for X Y
M204 T4000 ; restore travel acceleration
M572 W0.06 ; set smooth time
M221 S95 ; set flow
G21 ; set units to millimeters
G90 ; use absolute coordinates
M83 ; use relative distances for extrusion



M572 S0.27


M107
;LAYER_CHANGE
;Z:0.2
;HEIGHT:0.2
G1 E-2.5 F4200
M73 P2 R6
M73 Q2 S6
G1 Z.4 F720
G1 X74.182 Y78.188 F24000
G1 Z.2 F720
G1 E2.5 F2400
M204 P500
;TYPE:Skirt/Brim
;WIDTH:0.5
G1 F1800
G3 X86.598 Y79.59 I5.619 J5.922 E.5408
M73 P3 R6
M73 Q3 S6
G3 X94.426 Y76.005 I6.827 J4.57 E.34443
G3 X100.742 Y87.723 I-1.044 J8.124 E.59063
G3 X93.406 Y100.439 I-.549 J8.157 E1.25958
G3 X79.26 Y92.255 I-6.792 J-4.577 E.93568
G3 X74.139 Y78.23 I.541 J-8.145 E.71625
M204 P2000
M204 T4000
G1 X74.461 Y78.563 F24000
M204 P500
G1 F1800
G3 X79.987 Y76.401 I5.361 J5.558 E.23148
M73 P4 R6
M73 Q4 S6
G3 X86.596 Y80.488 I-.186 J7.687 E.30961
G3 X99.967 Y88.176 I6.807 J3.633 E.93974
G3 X93.393 Y99.556 I.219 J7.715 E1.24561
G3 X80.033 Y91.841 I-6.786 J-3.674 E.93776
G3 X74.418 Y78.605 I-.211 J-7.72 E.70259
M73 P5 R6
M204 P2000
G1 X74.733 Y78.928 F24000
M73 Q5 S6
M204 P500
G1 F1800
G3 X85.957 Y80.268 I5.073 J5.19 E.49248
G1 X86.619 Y81.521 E.05386
G3 X94.289 Y76.909 I6.807 J2.637 E.36615
G3 X99.067 Y88.696 I-.923 J7.236 E.58712
G3 X96.363 Y102.047 I1.123 J7.177 E1.06335
G3 X93.412 Y98.491 I3.993 J-6.316 E.17855
G3 X86.431 Y103.141 I-6.859 J-2.732 E.33905
G3 X80.936 Y91.308 I.197 J-7.284 E.61425
G3 X72.842 Y86.159 I-1.065 J-7.263 E.39733
G3 X74.691 Y78.97 I6.964 J-2.041 E.29614
M73 P6 R6
M73 Q6 S6
M204 P2000
G1 X75.013 Y79.294 F24000
M204 P500
G1 F1800
G3 X86.425 Y82.603 I4.788 J4.821 E.54961
G1 X86.77 Y82.611 E.01312
G3 X93.547 Y77.314 I6.655 J1.53 E.35365
G3 X98.051 Y89.084 I-.156 J6.806 E.61194
G1 X98.225 Y89.379 E.01302
G3 X93.581 Y97.418 I1.978 J6.504 E1.23491
G1 X93.228 Y97.413 E.01342
G3 X81.965 Y90.911 I-6.625 J-1.529 E.96529
G1 X81.792 Y90.611 E.01316
G3 X74.97 Y79.337 I-1.991 J-6.496 E.68382
M73 P7 R6
M73 Q7 S6
M204 P2000
G1 E-2.5 F4200
G1 Z.4 F720
G1 X87.271 Y82.52 F24000
G1 Z.2 F720
G1 E2.5 F2400
M204 P500
G1 F1800
G3 X93.527 Y77.771 I6.136 J1.589 E.32194
G1 X94.177 Y77.817 E.02477
G3 X87.256 Y82.579 I-.77 J6.292 E1.1647
M73 P7 R5
M204 P2000
G1 X87.7 Y82.689 F24000
M204 P500
G1 F1800
G3 X92.96 Y78.244 I5.708 J1.42 E.27961
G1 X93.506 Y78.228 E.02076
G3 X87.685 Y82.747 I-.098 J5.881 E1.10193
M204 P2000
G1 X88.128 Y82.853 F24000
M204 P500
G1 F1800
G3 X93.486 Y78.684 I5.278 J1.256 E.27877
G1 X94.065 Y78.724 E.02206
G3 X88.115 Y82.911 I-.659 J5.385 E.99244
M73 P8 R5
M73 Q8 S6
M204 P2000
G1 X88.562 Y83.012 F24000
M204 P500
G1 F1800
G3 X93.054 Y79.154 I4.846 J1.097 E.2411
G1 X93.466 Y79.141 E.01567
G3 X88.549 Y83.071 I-.058 J4.968 E.92733
M204 P2000
G1 X88.992 Y83.166 F24000
M204 P500
G1 F1800
G3 X93.447 Y79.598 I4.412 J.943 E.23486
M73 Q8 S5
G1 X93.953 Y79.631 E.01927
G3 X88.98 Y83.225 I-.549 J4.478 E.82088
M204 P2000
G1 X89.432 Y83.315 F24000
M204 P500
G1 F1800
G3 X93.145 Y80.063 I3.976 J.794 E.20168
G1 X93.428 Y80.055 E.01076
G3 X89.421 Y83.374 I-.02 J4.054 E.75353
M204 P2000
G1 E-2.5 F4200
G1 Z.4 F720
G1 X96.066 Y91.085 F24000
G1 Z.2 F720
M73 P9 R5
G1 E2.5 F2400
M204 P500
G1 F1800
G3 X100.088 Y89.549 I4.139 J4.803 E.16695
M73 Q9 S5
G1 X100.473 Y89.553 E.01463
G3 X96.02 Y91.124 I-.268 J6.335 E1.33023
M204 P2000
G1 X96.318 Y91.464 F24000
M204 P500
G1 F1800
G3 X99.746 Y90.022 I3.878 J4.425 E.14381
G1 X100.102 Y90.006 E.01354
G3 X96.273 Y91.504 I.094 J5.883 E1.24537
M204 P2000
G1 X96.582 Y91.848 F24000
M204 P500
G1 F1800
G3 X100.116 Y90.463 I3.622 J4.04 E.14738
G1 X100.445 Y90.467 E.01251
G3 X96.537 Y91.888 I-.241 J5.421 E1.13368
M73 P10 R5
M204 P2000
G1 X96.842 Y92.222 F24000
M204 P500
G1 F1800
G3 X99.805 Y90.935 I3.355 J3.667 E.12505
G1 X100.117 Y90.92 E.01187
G3 X96.798 Y92.263 I.08 J4.969 E1.04753
M73 Q10 S5
M204 P2000
G1 X97.115 Y92.599 F24000
M204 P500
G1 F1800
G3 X100.131 Y91.377 I3.089 J3.29 E.12653
G1 X100.416 Y91.381 E.01083
G3 X97.071 Y92.641 I-.212 J4.508 E.93792
M204 P2000
G1 X97.385 Y92.967 F24000
M204 P500
G1 F1800
G3 X99.865 Y91.847 I2.812 J2.922 E.10547
G1 X100.132 Y91.834 E.01016
G3 X97.342 Y93.009 I.065 J4.055 E.85056
M204 P2000
G1 E-2.5 F4200
G1 Z.4 F720
G1 X95.391 Y91.082 F24000
G1 Z.2 F720
G1 E2.5 F2400
M204 P500
G1 F1800
G2 X93.572 Y94.354 I4.963 J4.902 E.14405
G1 X93.227 Y94.35 E.01311
G2 X91.226 Y90.91 I-6.633 J1.556 E.15349
G1 X91.404 Y90.599 E.01362
G1 X91.895 Y90.74 E.01942
G2 X95.393 Y90.612 I1.502 J-6.78 E.13449
G1 X95.566 Y90.911 E.01313
G2 X95.433 Y91.04 I4.788 J5.073 E.00704
M204 P2000
G1 X94.538 Y91.307 F24000
M204 P500
G1 F1800
G2 X93.406 Y93.284 I8.853 J6.379 E.08674
M73 P11 R5
G2 X92.242 Y91.301 I-9.445 J4.21 E.08757
G2 X94.478 Y91.312 I1.182 J-12.489 E.0851
M73 Q11 S5
M204 P2000
G1 E-2.5 F4200
G1 Z.4 F720
G1 X92.087 Y92.701 F24000
G1 Z.2 F720
G1 E2.5 F2400
M204 P500
G1 F1800
G3 X86.488 Y89.547 I-5.482 J3.185 E1.25801
G1 X86.874 Y89.552 E.01467
G3 X92.057 Y92.649 I-.269 J6.334 E.23917
M204 P2000
G1 X91.658 Y92.886 F24000
M204 P500
G1 F1800
G3 X86.146 Y90.02 I-5.061 J3.001 E1.15626
G1 X86.503 Y90.004 E.01358
G3 X91.627 Y92.835 I.094 J5.883 E.23287
M204 P2000
G1 X91.242 Y93.069 F24000
M204 P500
G1 F1800
G3 X86.517 Y90.461 I-4.637 J2.818 E1.08118
M73 P12 R5
M73 Q12 S5
G1 X86.845 Y90.465 E.01247
G3 X91.211 Y93.017 I-.24 J5.422 E.19994
M204 P2000
G1 X90.817 Y93.262 F24000
M204 P500
G1 F1800
G3 X86.206 Y90.933 I-4.22 J2.625 E.98028
G1 X86.517 Y90.918 E.01183
G3 X90.785 Y93.211 I.08 J4.969 E.19234
M204 P2000
G1 X90.405 Y93.455 F24000
M204 P500
G1 F1800
G3 X86.532 Y91.375 I-3.801 J2.432 E.90309
G1 X86.816 Y91.379 E.01079
G3 X90.372 Y93.404 I-.212 J4.508 E.16142
M204 P2000
G1 X89.986 Y93.658 F24000
M204 P500
G1 F1800
G3 X86.266 Y91.845 I-3.388 J2.229 E.80342
G1 X86.532 Y91.832 E.01012
G3 X89.953 Y93.609 I.066 J4.055 E.15268
M204 P2000
G1 E-2.5 F4200
G1 Z.4 F720
G1 X88.589 Y89.379 F24000
G1 Z.2 F720
G1 E2.5 F2400
M204 P500
G1 F1800
G2 X84.624 Y89.378 I-1.985 J6.72 E.15278
M73 P13 R5
G1 X84.45 Y89.083 E.01302
G2 X86.435 Y85.616 I-4.86 J-5.085 E.15396
G1 X86.783 Y85.625 E.01323
G2 X88.76 Y89.085 I6.763 J-1.57 E.15361
M73 Q13 S5
G1 X88.619 Y89.327 E.01064
M204 P2000
G1 X87.796 Y88.709 F24000
M204 P500
G1 F1800
G2 X85.463 Y88.694 I-1.236 J10.588 E.08885
G2 X86.6 Y86.66 I-7.614 J-5.589 E.08879
G2 X87.759 Y88.662 I7.557 J-3.039 E.08822
M204 P2000
G1 E-2.5 F4200
G1 Z.4 F720
G1 X85.306 Y87.258 F24000
G1 Z.2 F720
G1 E2.5 F2400
M204 P500
G1 F1800
G3 X79.924 Y77.771 I-5.502 J-3.149 E1.01456
G1 X80.574 Y77.817 E.02477
G3 X85.335 Y87.206 I-.77 J6.292 E.47208
M204 P2000
G1 X84.937 Y86.982 F24000
M204 P500
G1 F1800
G3 X79.357 Y78.244 I-5.132 J-2.873 E.92234
G1 X79.903 Y78.228 E.02076
G3 X84.966 Y86.93 I-.098 J5.881 E.45923
M204 P2000
G1 X84.564 Y86.71 F24000
M204 P500
G1 F1800
G3 X79.884 Y78.684 I-4.761 J-2.601 E.87158
M73 P14 R5
M73 Q14 S5
G1 X80.462 Y78.724 E.02202
G3 X84.593 Y86.658 I-.659 J5.385 E.39966
M204 P2000
G1 X84.191 Y86.444 F24000
M204 P500
G1 F1800
G3 X79.451 Y79.154 I-4.386 J-2.335 E.78396
G1 X79.864 Y79.141 E.0157
G3 X84.218 Y86.39 I-.059 J4.968 E.38442
M204 P2000
G1 X83.81 Y86.179 F24000
M204 P500
G1 F1800
G3 X79.845 Y79.598 I-4.009 J-2.07 E.72791
G1 X80.35 Y79.631 E.01923
G3 X83.837 Y86.126 I-.549 J4.478 E.32792
M204 P2000
G1 X83.431 Y85.923 F24000
M204 P500
G1 F1800
G3 X79.542 Y80.063 I-3.626 J-1.814 E.6447
G1 X79.826 Y80.055 E.0108
G3 X83.458 Y85.869 I-.021 J4.054 E.31044
M73 P15 R5
M204 P2000
G1 E-2.5 F4200
G1 Z.4 F720
M486 S1
G1 X93.402 Y81.094 F24000
G1 Z.2 F720
G1 E2.5 F2400
M204 P500
;TYPE:External perimeter
;WIDTH:0.497855
G1 F1800
M73 Q15 S5
G3 X94.278 Y81.223 I-.071 J3.504 E.03358
;WIDTH:0.494454
G1 X94.83 Y81.452 E.02244
;WIDTH:0.494348
G1 X95.362 Y81.816 E.0242
;WIDTH:0.494761
G1 X95.806 Y82.284 E.02424
;WIDTH:0.49771
G1 X96.141 Y82.836 E.02442
;WIDTH:0.502062
G1 X96.341 Y83.413 E.02331
G1 X96.422 Y84.087 E.02592
;WIDTH:0.503215
G1 X96.37 Y84.664 E.02217
;WIDTH:0.50588
G3 X96.078 Y85.5 I-4.006 J-.927 E.03415
;WIDTH:0.505451
G1 X95.814 Y85.929 E.01937
;WIDTH:0.498385
G1 X95.523 Y86.263 E.01678
;WIDTH:0.502649
G1 X95.104 Y86.603 E.02063
;WIDTH:0.505608
G3 X94.111 Y87.046 I-2.156 J-3.502 E.04196
;WIDTH:0.501345
G1 X93.43 Y87.131 E.02616
;WIDTH:0.499623
G1 X92.788 Y87.066 E.0245
;WIDTH:0.499066
G1 X92.174 Y86.868 E.02447
;WIDTH:0.503292
G3 X91.282 Y86.258 I1.825 J-3.626 E.04149
;WIDTH:0.502261
G1 X90.913 Y85.81 E.02217
G1 X90.654 Y85.358 E.0199
;WIDTH:0.502059
G1 X90.47 Y84.809 E.02211
;WIDTH:0.507489
G1 X90.419 Y84.477 E.01298
G1 X90.386 Y84.087 E.01512
;WIDTH:0.499624
G1 X90.451 Y83.494 E.02265
;WIDTH:0.499065
G1 X90.649 Y82.88 E.02447
;WIDTH:0.502918
G3 X91.258 Y81.989 I3.582 J1.795 E.04141
;WIDTH:0.498341
G1 X91.744 Y81.591 E.02379
;WIDTH:0.505895
G1 X92.328 Y81.3 E.02512
G1 X92.845 Y81.148 E.02075
;WIDTH:0.502615
G1 X93.342 Y81.096 E.0191
M204 P2000
G1 X93.741 Y81.121 F24000
G1 X93.409 Y80.64
M204 P500
;WIDTH:0.501316
G1 F1800
G3 X94.361 Y80.776 I-.046 J3.732 E.03676
;WIDTH:0.506557
G1 X94.849 Y80.954 E.02003
;WIDTH:0.507059
G1 X95.394 Y81.266 E.02424
G1 X95.876 Y81.671 E.0243
;WIDTH:0.506314
G1 X96.276 Y82.155 E.02419
;WIDTH:0.503292
G1 X96.592 Y82.729 E.02508
;WIDTH:0.502062
G1 X96.776 Y83.266 E.02167
;WIDTH:0.507221
G1 X96.854 Y83.707 E.01729
G1 X96.873 Y84.307 E.02318
;WIDTH:0.50588
G3 X96.475 Y85.738 I-3.819 J-.291 E.05754
;WIDTH:0.505451
G1 X96.156 Y86.225 E.02239
;WIDTH:0.498385
G1 X95.811 Y86.615 E.01972
G1 X95.23 Y87.061 E.02774
;WIDTH:0.495138
G1 X94.592 Y87.369 E.02664
;WIDTH:0.498081
G1 X94.089 Y87.516 E.01983
;WIDTH:0.499623
G1 X93.342 Y87.586 E.02849
;WIDTH:0.502066
G1 X92.56 Y87.482 E.03012
G1 X91.902 Y87.241 E.02675
;WIDTH:0.497711
G1 X91.292 Y86.862 E.02716
;WIDTH:0.498378
G1 X90.902 Y86.518 E.01969
G1 X90.469 Y85.959 E.02678
;WIDTH:0.499052
G1 X90.217 Y85.489 E.02023
G1 X90.001 Y84.794 E.0276
;WIDTH:0.499624
G1 X89.931 Y84.048 E.02845
;WIDTH:0.502072
G1 X90.035 Y83.266 E.03012
G1 X90.276 Y82.608 E.02675
;WIDTH:0.497702
G1 X90.648 Y82.007 E.02673
;WIDTH:0.499595
G1 X90.992 Y81.611 E.01992
;WIDTH:0.501692
G1 X91.619 Y81.13 E.03015
;WIDTH:0.505895
G1 X92.193 Y80.857 E.02447
G1 X92.799 Y80.691 E.02419
;WIDTH:0.502615
G1 X93.333 Y80.64 E.0205
;WIDTH:0.501316
G3 X93.349 Y80.64 I.03 J3.732 E.00061
M204 P2000
G1 X93.749 Y80.663 F24000
G1 E-2.5 F4200
G1 Z.4 F720
M486 S-1
M486 S0
G1 X100.135 Y92.878 F24000
G1 Z.2 F720
G1 E2.5 F2400
M204 P500
;WIDTH:0.50721
G1 F1800
G3 X100.261 Y92.873 I.245 J4.104 E.00487
;WIDTH:0.508703
G3 X101.227 Y93.051 I-.422 J4.997 E.0381
;WIDTH:0.498332
G1 X101.824 Y93.344 E.02518
G1 X102.379 Y93.8 E.0272
;WIDTH:0.506346
G1 X102.737 Y94.266 E.02264
;WIDTH:0.508362
G3 X103.106 Y95.069 I-3.975 J2.316 E.03425
;WIDTH:0.499042
G1 X103.216 Y95.742 E.02586
G1 X103.162 Y96.459 E.02727
;WIDTH:0.49939
G1 X102.947 Y97.143 E.02721
G1 X102.572 Y97.756 E.02728
;WIDTH:0.50768
G3 X101.889 Y98.381 I-3.173 J-2.783 E.03585
;WIDTH:0.507124
G1 X101.45 Y98.637 E.01962
;WIDTH:0.500144
G1 X100.765 Y98.855 E.02733
G1 X100.048 Y98.903 E.02732
;WIDTH:0.508423
G3 X99.169 Y98.718 I.492 J-4.505 E.03483
;WIDTH:0.506256
G1 X98.681 Y98.497 E.02064
;WIDTH:0.500873
G1 X98.079 Y98.037 E.02885
;WIDTH:0.498221
G1 X97.653 Y97.507 E.02574
G1 X97.343 Y96.859 E.0272
;WIDTH:0.506158
G1 X97.215 Y96.28 E.02284
;WIDTH:0.508482
G3 X97.225 Y95.385 I4.553 J-.396 E.0347
;WIDTH:0.498898
G1 X97.407 Y94.745 E.02523
G1 X97.758 Y94.118 E.02724
;WIDTH:0.50703
G1 X98.137 Y93.699 E.0218
;WIDTH:0.507747
G3 X98.883 Y93.176 I2.776 J3.164 E.03528
;WIDTH:0.507037
G1 X99.368 Y92.998 E.01994
;WIDTH:0.50721
G3 X100.075 Y92.882 I1.012 J3.984 E.02769
M204 P2000
G1 X100.474 Y92.9 F24000
G1 X100.139 Y92.431
M204 P500
G1 F1800
G1 X100.293 Y92.423 E.00595
;WIDTH:0.508703
G1 X100.866 Y92.482 E.02231
G1 X101.414 Y92.636 E.02205
;WIDTH:0.498173
G1 X102.064 Y92.957 E.02744
;WIDTH:0.50894
G3 X102.847 Y93.638 I-2.463 J3.622 E.04031
;WIDTH:0.505104
G1 X103.246 Y94.223 E.02721
;WIDTH:0.502436
G1 X103.512 Y94.834 E.02546
;WIDTH:0.509374
G3 X103.676 Y95.788 I-4.669 J1.296 E.03761
;WIDTH:0.508943
G1 X103.652 Y96.259 E.01827
;WIDTH:0.50912
G1 X103.506 Y96.951 E.02742
G1 X103.317 Y97.425 E.01978
;WIDTH:0.499686
G1 X102.881 Y98.099 E.03049
;WIDTH:0.50768
G3 X102.124 Y98.781 I-3.206 J-2.797 E.03947
;WIDTH:0.507124
G1 X101.553 Y99.086 E.02499
;WIDTH:0.500144
G1 X100.89 Y99.295 E.02643
;WIDTH:0.509382
G3 X99.892 Y99.351 I-.757 J-4.594 E.03884
;WIDTH:0.502309
G1 X99.131 Y99.192 E.0297
;WIDTH:0.505206
G1 X98.58 Y98.962 E.02295
;WIDTH:0.508912
G3 X97.723 Y98.322 I2.121 J-3.736 E.04155
;WIDTH:0.498274
G1 X97.271 Y97.755 E.02745
;WIDTH:0.508877
G3 X96.849 Y96.802 I3.743 J-2.225 E.04048
;WIDTH:0.505301
G1 X96.737 Y96.109 E.02699
;WIDTH:0.502183
G1 X96.755 Y95.437 E.02567
;WIDTH:0.509386
G3 X97.026 Y94.478 I4.476 J.744 E.03873
;WIDTH:0.500218
G1 X97.436 Y93.787 E.03055
;WIDTH:0.50703
G1 X97.797 Y93.383 E.02091
;WIDTH:0.507747
G1 X98.182 Y93.064 E.01932
G1 X98.733 Y92.75 E.02451
;WIDTH:0.507037
G1 X99.203 Y92.564 E.01951
;WIDTH:0.50721
G1 X99.69 Y92.454 E.01927
G1 X100.079 Y92.434 E.01504
M204 P2000
G1 X100.479 Y92.446 F24000
G1 E-2.5 F4200
G1 Z.4 F720
M486 S-1
M486 S3
G1 X86.535 Y92.877 F24000
G1 Z.2 F720
M73 P16 R5
G1 E2.5 F2400
M204 P500
G1 F1800
G3 X86.662 Y92.871 I.245 J4.103 E.00491
;WIDTH:0.508703
G3 X87.628 Y93.049 I-.423 J4.998 E.0381
;WIDTH:0.498332
G1 X88.224 Y93.342 E.02515
G1 X88.779 Y93.799 E.02722
;WIDTH:0.506346
G1 X89.137 Y94.264 E.02261
;WIDTH:0.508362
G3 X89.507 Y95.067 I-3.975 J2.316 E.03427
;WIDTH:0.499042
G1 X89.617 Y95.74 E.02586
G1 X89.562 Y96.457 E.02727
;WIDTH:0.49939
G1 X89.348 Y97.142 E.02724
M73 Q16 S5
G1 X88.972 Y97.755 E.02729
;WIDTH:0.50768
G3 X88.29 Y98.379 I-3.172 J-2.784 E.03579
;WIDTH:0.507124
G1 X87.85 Y98.635 E.01965
;WIDTH:0.500144
G1 X87.166 Y98.854 E.0273
G1 X86.448 Y98.901 E.02736
;WIDTH:0.508423
G3 X85.57 Y98.716 I.492 J-4.505 E.03479
;WIDTH:0.506256
