; generated by PrusaSlicer 2.9.2 on 2025-09-05 at 14:45:51 UTC


;
;

;
;

;
;

;
;
;

; external perimeters extrusion width = 0.45mm
; perimeters extrusion width = 0.45mm
; infill extrusion width = 0.45mm
; solid infill extrusion width = 0.45mm
; top infill extrusion width = 0.42mm
; first layer extrusion width = 0.50mm

; external perimeters extrusion width = 0.45mm
; perimeters extrusion width = 0.45mm
; infill extrusion width = 0.45mm
; solid infill extrusion width = 0.45mm
; top infill extrusion width = 0.42mm
; first layer extrusion width = 0.50mm

; external perimeters extrusion width = 0.45mm
; perimeters extrusion width = 0.45mm
; infill extrusion width = 0.45mm
; solid infill extrusion width = 0.45mm
; top infill extrusion width = 0.42mm
; first layer extrusion width = 0.50mm

; external perimeters extrusion width = 0.45mm
; perimeters extrusion width = 0.45mm
; infill extrusion width = 0.45mm
; solid infill extrusion width = 0.45mm
; top infill extrusion width = 0.42mm
; first layer extrusion width = 0.50mm

; external perimeters extrusion width = 0.45mm
; perimeters extrusion width = 0.45mm
; infill extrusion width = 0.45mm
; solid infill extrusion width = 0.45mm
; top infill extrusion width = 0.42mm
; first layer extrusion width = 0.50mm

M73 P0 R17
M73 Q0 S18
M201 X4000 Y4000 Z400 E5000 ; sets maximum accelerations, mm/sec^2
M203 X400 Y400 Z12 E80 ; sets maximum feedrates, mm / sec
M204 P4000 R1250 T4000 ; sets acceleration (P, T) and retract acceleration (R), mm/sec^2
M205 X8.00 Y8.00 Z2.00 E10.00 ; sets the jerk limits, mm/sec
M205 S0 T0 ; sets the minimum extruding and travel feed rate, mm/sec

M486 S0
M486 ABushel1.stl
M486 S-1
M486 S1
M486 AShortBushel1.stl
M486 S-1
M486 S2
M486 AVoltage_protection.stl
M486 S-1
M486 S3
M486 AShortBushel1.stl
M486 S-1
M486 S4
M486 ABushel1.stl
M486 S-1

;TYPE:Custom
M862.3 P "MINI" ; printer model check
M862.1 P0.4 ; nozzle diameter check
M862.5 P2 ; g-code level check
M862.6 P"Input shaper" ; FW feature check
M115 U6.0.1+14848
G90 ; use absolute coordinates
M83 ; extruder relative mode
M104 S170 ; set extruder temp for bed leveling
M140 S60 ; set bed temp
M109 R170 ; wait for bed leveling temp
M190 S60 ; wait for bed temp
M569 S1 X Y ; set stealthchop for X Y
M204 T1250 ; set travel acceleration
G28 ; home all without mesh bed level
G29 ; mesh bed leveling
M104 S230 ; set extruder temp
G92 E0

G1 X0 Y-2 Z3 F2400

M109 S230 ; wait for extruder temp

; intro line
G1 X10 Z0.2 F1000
G1 X70 E8 F900
G1 X140 E10 F700
G92 E0

M569 S0 X Y ; set spreadcycle for X Y
M204 T4000 ; restore travel acceleration
M572 W0.06 ; set smooth time
M221 S95 ; set flow
G21 ; set units to millimeters
G90 ; use absolute coordinates
M83 ; use relative distances for extrusion
M572 S0.27
M107
;LAYER_CHANGE
;Z:0.2
;HEIGHT:0.2
G1 E-2.5 F4200
M73 P1 R17
G1 Z.4 F720
G1 X59.978 Y70.261 F24000
M73 Q1 S18
G1 Z.2 F720
G1 E2.5 F2400
M204 P500
;TYPE:Skirt/Brim
;WIDTH:0.5
G1 F1800
G3 X70.767 Y70.534 I5.242 J6.141 E.44923
G1 X70.77 Y64.809 E.21759
G3 X74.873 Y60.745 I4.471 J.411 E.23841
G1 X105.182 Y60.75 E1.15193
G3 X109.235 Y64.855 I-.423 J4.47 E.2381
G1 X109.235 Y71.179 E.24035
G3 X109.235 Y82.901 I5.541 J5.861 E1.42753
G1 X109.235 Y99.614 E.6352
G3 X113.853 Y97.084 I6.276 J5.979 E.20334
G3 X110.171 Y111.278 I1.419 J7.943 E1.22732
G1 X109.235 Y110.422 E.04821
G1 X109.23 Y115.192 E.18129
G3 X105.266 Y119.241 I-4.467 J-.408 E.2331
G1 X74.824 Y119.249 E1.15699
G3 X70.798 Y115.458 I.421 J-4.481 E.22633
M73 Q1 S17
G2 X70.637 Y110.614 I-66.707 J-.207 E.18424
G1 X70.674 Y109.549 E.0405
G3 X70.765 Y97.734 I-5.456 J-5.95 E1.424
G1 X70.765 Y82.271 E.58769
G3 X59.933 Y70.3 I-5.545 J-5.869 E.97821
M73 P2 R17
M204 P2000
M204 T4000
G1 X60.232 Y70.644 F24000
M204 P500
G1 F1800
G3 X71.224 Y71.699 I4.994 J5.756 E.4694
M73 Q2 S17
G1 X71.227 Y64.83 E.26107
G3 X74.894 Y61.202 I4.009 J.386 E.21277
G1 X105.158 Y61.207 E1.15022
G3 X108.777 Y64.876 I-.395 J4.009 E.21252
G1 X108.777 Y72.34 E.28368
G3 X108.777 Y81.744 I5.99 J4.702 E1.43319
G1 X108.777 Y100.496 E.71269
G1 X109.09 Y100.6 E.01254
G3 X109.092 Y109.457 I6.187 J4.427 E1.4574
G1 X108.777 Y109.56 E.0126
G1 X108.777 Y115.124 E.21147
G3 X105.195 Y118.789 I-4.009 J-.337 E.21115
G1 X74.849 Y118.791 E1.15334
G3 X71.255 Y115.425 I.391 J-4.019 E.20125
G2 X71.094 Y110.607 I-66.026 J-.211 E.18326
G1 X71.214 Y108.771 E.06993
G1 X70.913 Y108.639 E.01249
G3 X71.222 Y98.898 I-5.695 J-5.056 E1.41667
G1 X71.222 Y81.102 E.67636
G3 X60.186 Y70.684 I-5.996 J-4.702 E.9629
M204 P2000
G1 X60.488 Y71.026 F24000
M204 P500
G1 F1800
G3 X71.36 Y72.723 I4.73 J5.373 E.477
M73 P3 R17
G1 X71.68 Y72.623 E.01274
G1 X71.684 Y64.853 E.29531
G3 X74.917 Y61.659 I3.547 J.357 E.18728
G1 X105.135 Y61.664 E1.14848
G3 X108.32 Y64.897 I-.368 J3.548 E.18695
M73 Q3 S17
G1 X108.32 Y73.266 E.31807
G1 X108.654 Y73.359 E.01318
G3 X108.655 Y80.73 I6.127 J3.685 E1.41306
G1 X108.32 Y80.823 E.01321
G1 X108.32 Y102.188 E.81201
G1 X108.678 Y102.267 E.01393
G3 X108.68 Y107.789 I6.598 J2.759 E1.49227
G1 X108.32 Y107.867 E.014
G1 X108.32 Y115.102 E.27498
G3 X105.126 Y118.336 I-3.549 J-.311 E.18734
G1 X74.872 Y118.334 E1.14984
G3 X71.711 Y115.392 I.366 J-3.562 E.17616
G2 X71.551 Y110.601 I-65.238 J-.217 E.18223
G2 X71.681 Y107.381 I-57.207 J-3.925 E.1225
G1 X71.359 Y107.278 E.01285
G3 X71.359 Y99.922 I-6.141 J-3.678 E1.41581
G1 X71.679 Y99.821 E.01275
G1 X71.68 Y80.178 E.74656
G1 X71.358 Y80.078 E.01281
G3 X60.443 Y71.066 I-6.14 J-3.679 E.93667
M204 P2000
G1 X60.747 Y71.406 F24000
M204 P500
G1 F1800
G3 X71.743 Y74.892 I4.468 J4.992 E.52812
M73 P4 R17
G1 X72.137 Y74.837 E.01512
G1 X72.141 Y64.877 E.37854
G3 X74.94 Y62.117 I3.084 J.328 E.1618
M73 P4 R16
G1 X105.111 Y62.121 E1.14669
G3 X107.863 Y64.92 I-.339 J3.086 E.1615
M73 Q4 S17
G1 X107.863 Y75.459 E.40055
G1 X108.265 Y75.508 E.01539
G3 X108.266 Y78.58 I6.516 J1.533 E1.48063
G1 X107.863 Y78.628 E.01542
G1 X107.863 Y115.08 E1.38541
G3 X105.061 Y117.884 I-3.089 J-.285 E.16343
G1 X74.896 Y117.877 E1.14646
G3 X72.168 Y115.357 I.34 J-3.104 E.15115
G2 X72.008 Y110.594 I-64.412 J-.224 E.18117
G2 X72.137 Y105.161 I-58.065 J-4.087 E.20662
G1 X71.742 Y105.107 E.01515
G3 X71.743 Y102.092 I-6.527 J-1.509 E1.48426
G1 X72.137 Y102.037 E.01512
G1 X72.137 Y77.96 E.91508
G1 X71.742 Y77.906 E.01515
G3 X60.702 Y71.446 I-6.527 J-1.508 E.95389
M204 P2000
G1 E-2.5 F4200
G1 Z.4 F720
G1 X108.573 Y76.399 F24000
G1 Z.2 F720
G1 E2.5 F2400
M204 P500
G1 F1800
G3 X114.895 Y70.803 I6.206 J.642 E.35244
G1 X115.535 Y70.848 E.02438
G3 X108.568 Y76.459 I-.756 J6.193 E1.11081
M73 P5 R16
M204 P2000
G1 X109.026 Y76.502 F24000
M204 P500
G1 F1800
G3 X114.34 Y71.276 I5.757 J.539 E.30782
G1 X114.875 Y71.26 E.02034
G3 X109.021 Y76.561 I-.092 J5.781 E1.05037
M73 Q5 S17
M204 P2000
G1 X109.472 Y76.599 F24000
M204 P500
G1 F1800
G3 X114.855 Y71.717 I5.306 J.442 E.30397
G1 X115.424 Y71.755 E.02167
G3 X109.467 Y76.659 I-.646 J5.286 E.9437
M204 P2000
G1 X109.927 Y76.692 F24000
M204 P500
G1 F1800
G3 X114.433 Y72.186 I4.856 J.35 E.26403
G1 X114.836 Y72.173 E.01532
G3 X109.923 Y76.752 I-.053 J4.869 E.8809
M204 P2000
G1 X110.373 Y76.779 F24000
M204 P500
G1 F1800
G3 X114.817 Y72.63 I4.404 J.263 E.25492
G1 X115.314 Y72.663 E.01893
G3 X110.37 Y76.839 I-.537 J4.379 E.77735
M204 P2000
G1 X110.833 Y76.86 F24000
M204 P500
G1 F1800
G3 X114.525 Y73.096 I3.951 J.182 E.21934
G1 X114.799 Y73.087 E.01042
G3 X110.831 Y76.92 I-.015 J3.955 E.71234
M204 P2000
G1 E-2.5 F4200
G1 Z.4 F720
G1 X107.406 Y76.92 F24000
G1 Z.2 F720
G1 E2.5 F2400
M204 P500
G1 F1800
G1 X107.406 Y115.058 E1.44949
G3 X105.037 Y117.427 I-2.627 J-.259 E.13794
G1 X74.961 Y117.425 E1.14308
G3 X72.618 Y115.271 I.27 J-2.645 E.12968
G2 X72.466 Y110.588 I-59.79 J-.4 E.17812
G1 X72.594 Y108.052 E.09651
G1 X72.594 Y64.942 E1.63845
G3 X74.963 Y62.574 I2.627 J.259 E.13791
M73 P6 R16
G1 X105.088 Y62.578 E1.14494
G3 X107.406 Y64.943 I-.312 J2.625 E.13601
G1 X107.406 Y76.86 E.45292
M204 P2000
G1 X106.949 Y76.86 F24000
M204 P500
G1 F1800
M73 Q6 S17
G1 X106.949 Y115.035 E1.45089
G3 X105.014 Y116.969 I-2.165 J-.231 E.11242
G1 X74.985 Y116.967 E1.14129
G3 X73.068 Y115.187 I.239 J-2.179 E.10653
G2 X72.923 Y110.582 I-55.694 J-.548 E.17516
G1 X72.948 Y109.888 E.02639
G2 X73.051 Y108.056 I-15.606 J-1.792 E.06978
G1 X73.051 Y64.966 E1.63769
G3 X74.986 Y63.031 I2.165 J.23 E.11246
G1 X105.062 Y63.035 E1.14308
G3 X106.949 Y64.965 I-.283 J2.164 E.1106
G1 X106.949 Y76.8 E.4498
M204 P2000
G1 X106.492 Y76.8 F24000
M204 P500
G1 F1800
G1 X106.492 Y115.012 E1.4523
G3 X104.992 Y116.512 I-1.706 J-.205 E.08689
G1 X75.007 Y116.51 E1.13962
G3 X73.519 Y115.107 I.213 J-1.716 E.08316
G2 X73.38 Y110.576 I-52.094 J-.672 E.17234
G1 X73.404 Y109.923 E.02483
G2 X73.508 Y108.061 I-15.866 J-1.818 E.07092
G1 X73.508 Y64.988 E1.63705
G3 X75.008 Y63.488 I1.706 J.206 E.08689
M73 P7 R16
G1 X105.037 Y63.492 E1.14129
G3 X106.492 Y64.988 I-.256 J1.705 E.08519
M73 Q7 S17
G1 X106.492 Y76.74 E.44665
M204 P2000
G1 X106.035 Y76.74 F24000
M204 P500
G1 F1800
G1 X106.035 Y114.99 E1.45374
G3 X104.97 Y116.055 I-1.248 J-.183 E.06134
M73 Q7 S16
G1 X75.03 Y116.053 E1.13791
G3 X73.97 Y115.032 I.187 J-1.255 E.05967
G2 X73.837 Y110.571 I-49.008 J-.771 E.16968
G1 X73.86 Y109.958 E.02331
G2 X73.965 Y108.065 I-16.126 J-1.844 E.0721
G1 X73.965 Y65.01 E1.63636
G3 X75.03 Y63.945 I1.248 J.183 E.06134
G1 X105.011 Y63.949 E1.13947
G3 X106.035 Y65.01 I-.233 J1.249 E.05979
G1 X106.035 Y76.68 E.44353
M204 P2000
G1 X105.578 Y76.68 F24000
M204 P500
G1 F1800
G1 X105.578 Y114.967 E1.45515
G3 X104.947 Y115.598 I-.8 J-.168 E.03588
G1 X75.053 Y115.596 E1.13616
G3 X74.422 Y114.967 I.169 J-.799 E.03581
G2 X74.294 Y110.565 I-46.568 J-.843 E.16744
M73 P8 R16
G1 X74.315 Y109.994 E.02172
G2 X74.422 Y108.07 I-16.387 J-1.872 E.07328
G1 X74.422 Y65.033 E1.63568
G3 X75.053 Y64.402 I.8 J.169 E.03588
G1 X104.991 Y64.411 E1.13783
G3 X105.578 Y65.033 I-.219 J.795 E.03417
M73 Q8 S16
G1 X105.578 Y76.62 E.44038
M204 P2000
G1 X105.121 Y76.62 F24000
M204 P500
G1 F1800
G1 X105.121 Y114.899 E1.45484
G3 X104.879 Y115.141 I-.361 J-.119 E.01349
G1 X75.121 Y115.139 E1.13099
G3 X74.879 Y114.898 I.119 J-.361 E.01346
G2 X74.751 Y110.56 I-45.609 J-.822 E.16501
G1 X74.771 Y110.029 E.0202
G2 X74.879 Y108.074 I-16.649 J-1.898 E.07446
G1 X74.879 Y65.101 E1.63325
G3 X75.121 Y64.859 I.361 J.119 E.01349
G1 X104.879 Y64.859 E1.13099
G3 X105.121 Y65.101 I-.119 J.361 E.01349
G1 X105.121 Y76.56 E.43551
M204 P2000
G1 E-2.5 F4200
G1 Z.4 F720
G1 X71.448 Y76.424 F24000
G1 Z.2 F720
G1 E2.5 F2400
M204 P500
G1 F1800
G3 X65.107 Y70.159 I-6.24 J-.025 E1.11293
G1 X65.475 Y70.164 E.01399
G3 X71.448 Y76.364 I-.267 J6.235 E.36107
M204 P2000
G1 X70.986 Y76.366 F24000
M204 P500
G1 F1800
G3 X64.767 Y70.632 I-5.784 J.033 E1.02058
M73 P9 R16
G1 X65.108 Y70.616 E.01297
G3 X70.986 Y76.306 I.094 J5.783 E.34537
M204 P2000
G1 X70.533 Y76.314 F24000
M204 P500
G1 F1800
G3 X65.122 Y71.073 I-5.326 J.085 E.954
G1 X65.446 Y71.077 E.01231
G3 X70.531 Y76.254 I-.239 J5.322 E.30341
M204 P2000
G1 X70.072 Y76.266 F24000
M204 P500
G1 F1800
G3 X64.826 Y71.544 I-4.868 J.133 E.86285
M73 Q9 S16
G1 X65.122 Y71.53 E.01126
G3 X70.07 Y76.206 I.082 J4.869 E.28651
M204 P2000
G1 X69.615 Y76.224 F24000
M204 P500
G1 F1800
G3 X65.136 Y71.987 I-4.409 J.175 E.79431
G1 X65.416 Y71.991 E.01064
G3 X69.613 Y76.164 I-.21 J4.408 E.24655
M204 P2000
G1 X69.154 Y76.189 F24000
M204 P500
G1 F1800
G3 X64.886 Y72.456 I-3.95 J.21 E.70437
G1 X65.137 Y72.444 E.00955
G3 X69.151 Y76.129 I.067 J3.955 E.22845
M204 P2000
G1 E-2.5 F4200
G1 Z.4 F720
G1 X66.094 Y97.422 F24000
G1 Z.2 F720
G1 E2.5 F2400
M204 P500
G1 F1800
G3 X65.107 Y97.359 I-.886 J6.177 E1.45264
G1 X65.475 Y97.364 E.01399
G3 X66.035 Y97.413 I-.267 J6.235 E.02137
M204 P2000
G1 X65.974 Y97.867 F24000
M204 P500
G1 F1800
G3 X64.767 Y97.832 I-.772 J5.732 E1.33519
M73 P9 R15
G1 X65.108 Y97.816 E.01297
G3 X65.914 Y97.86 I.094 J5.783 E.0307
M204 P2000
G1 X65.858 Y98.313 F24000
M204 P500
G1 F1800
G3 X65.122 Y98.273 I-.651 J5.286 E1.24397
G1 X65.446 Y98.278 E.01232
G3 X65.799 Y98.306 I-.239 J5.321 E.01346
M204 P2000
G1 X65.748 Y98.76 F24000
M204 P500
G1 F1800
G3 X64.826 Y98.744 I-.544 J4.839 E1.1278
G1 X65.122 Y98.73 E.01126
G3 X65.688 Y98.754 I.082 J4.869 E.02154
M204 P2000
G1 X65.643 Y99.208 F24000
M204 P500
G1 F1800
G3 X65.136 Y99.187 I-.437 J4.391 E1.03445
M73 P10 R15
G1 X65.416 Y99.192 E.01064
G3 X65.583 Y99.203 I-.21 J4.407 E.00636
M204 P2000
G1 X65.544 Y99.658 F24000
M204 P500
G1 F1800
G3 X64.886 Y99.657 I-.34 J3.942 E.9196
G1 X65.137 Y99.644 E.00955
G3 X65.484 Y99.654 I.067 J3.956 E.0132
M204 P2000
G1 E-2.5 F4200
G1 Z.4 F720
G1 X108.622 Y104.307 F24000
G1 Z.2 F720
G1 E2.5 F2400
M204 P500
G1 F1800
G3 X114.765 Y98.349 I6.658 J.718 E.35284
G1 X115.412 Y98.331 E.0246
G3 X108.616 Y104.367 I-.132 J6.694 E1.21927
M73 Q10 S16
M204 P2000
G1 X109.068 Y104.412 F24000
M204 P500
G1 F1800
G3 X115.392 Y98.788 I6.209 J.614 E.35348
G1 X116.032 Y98.832 E.02438
G3 X109.062 Y104.471 I-.755 J6.194 E1.10973
M204 P2000
G1 X109.521 Y104.512 F24000
M204 P500
G1 F1800
G3 X114.837 Y99.261 I5.759 J.514 E.30877
G1 X115.372 Y99.244 E.02034
G3 X109.516 Y104.572 I-.092 J5.782 E1.04934
M204 P2000
G1 X109.967 Y104.608 F24000
M204 P500
G1 F1800
G3 X115.352 Y99.701 I5.309 J.418 E.30492
G1 X115.921 Y99.74 E.02168
G3 X109.962 Y104.667 I-.645 J5.286 E.94281
M204 P2000
G1 X110.423 Y104.698 F24000
M204 P500
G1 F1800
G3 X114.93 Y100.17 I4.857 J.328 E.26485
G1 X115.334 Y100.158 E.01536
G3 X110.419 Y104.758 I-.054 J4.868 E.88007
M204 P2000
G1 X110.869 Y104.783 F24000
M204 P500
G1 F1800
G3 X115.315 Y100.615 I4.405 J.243 E.25568
G1 X115.811 Y100.647 E.01889
G3 X110.866 Y104.843 I-.537 J4.379 E.77659
M204 P2000
G1 X111.329 Y104.862 F24000
M204 P500
G1 F1800
G3 X115.022 Y101.08 I3.952 J.164 E.22003
G1 X115.296 Y101.072 E.01042
G3 X111.327 Y104.922 I-.015 J3.954 E.71167
M204 P2000
G1 E-2.5 F4200
G1 Z.4 F720
M486 S4
G1 X65.387 Y73.505 F24000
G1 Z.2 F720
G1 E2.5 F2400
M204 P500
;TYPE:External perimeter
;WIDTH:0.508907
G1 F1800
G1 X65.742 Y73.544 E.01384
G1 X66.298 Y73.7 E.02238
;WIDTH:0.505737
G1 X66.782 Y73.942 E.02082
;WIDTH:0.502716
G1 X67.303 Y74.371 E.0258
;WIDTH:0.50779
G1 X67.657 Y74.829 E.02238
;WIDTH:0.50914
G3 X68.043 Y75.711 I-3.957 J2.261 E.03739
;WIDTH:0.494337
G1 X68.126 Y76.372 E.02501
;WIDTH:0.499515
G1 X68.046 Y77.089 E.02739
M73 P11 R15
;WIDTH:0.505635
G1 X67.838 Y77.651 E.02306
;WIDTH:0.508869
G3 X67.336 Y78.395 I-4.443 J-2.458 E.03482
;WIDTH:0.492914
G1 X66.828 Y78.825 E.0249
;WIDTH:0.496682
G1 X66.184 Y79.15 E.02722
;WIDTH:0.503085
G1 X65.534 Y79.296 E.02549
;WIDTH:0.507992
G3 X64.703 Y79.271 I-.236 J-5.815 E.03218
;WIDTH:0.492412
G1 X64.064 Y79.081 E.02492
;WIDTH:0.494541
G1 X63.441 Y78.718 E.02708
;WIDTH:0.498448
G1 X63.395 Y78.685 E.00214
;WIDTH:0.49987
G1 X62.924 Y78.215 E.02528
;WIDTH:0.505916
G1 X62.612 Y77.712 E.02279
;WIDTH:0.50894
G3 X62.33 Y76.852 I4.592 J-1.986 E.03512
;WIDTH:0.493048
G1 X62.302 Y76.187 E.02491
;WIDTH:0.497024
G1 X62.441 Y75.479 E.02724
;WIDTH:0.503449
G1 X62.721 Y74.883 E.02522
;WIDTH:0.508171
G3 X63.256 Y74.236 I4.657 J3.302 E.03251
;WIDTH:0.492426
G1 X63.798 Y73.849 E.02489
;WIDTH:0.494759
G1 X64.467 Y73.58 E.02709
;WIDTH:0.499671
G1 X65.169 Y73.481 E.02693
;WIDTH:0.508907
G1 X65.327 Y73.499 E.00616
M204 P2000
G1 X65.724 Y73.548 F24000
G1 X65.395 Y73.045
M204 P500
G1 F1800
G1 X65.856 Y73.092 E.01795
G1 X66.508 Y73.288 E.02638
;WIDTH:0.505737
G1 X67.12 Y73.619 E.02678
;WIDTH:0.502716
G1 X67.599 Y74.019 E.02386
G1 X67.734 Y74.173 E.00783
;WIDTH:0.50779
G1 X68.053 Y74.589 E.02026
;WIDTH:0.50914
G1 X68.358 Y75.198 E.0264
G1 X68.537 Y75.856 E.02644
;WIDTH:0.50786
G1 X68.58 Y76.537 E.02638
;WIDTH:0.50284
G1 X68.456 Y77.301 E.0296
;WIDTH:0.496451
G1 X68.193 Y77.962 E.02683
;WIDTH:0.508816
G1 X67.895 Y78.436 E.02169
G1 X67.43 Y78.935 E.02642
G1 X66.876 Y79.331 E.02638
;WIDTH:0.50544
G1 X66.233 Y79.614 E.02702
;WIDTH:0.503085
G1 X65.631 Y79.746 E.02358
G1 X65.418 Y79.759 E.00817
;WIDTH:0.507992
G1 X64.902 Y79.757 E.01995
;WIDTH:0.509137
G1 X64.233 Y79.625 E.02643
G1 X63.603 Y79.363 E.02645
;WIDTH:0.507641
G1 X63.038 Y78.981 E.02635
;WIDTH:0.50246
G1 X62.506 Y78.408 E.02988
;WIDTH:0.496109
